src/assets/icons/fb.svg

<svg width="12" height="26" viewBox="0 0 12 26" fill="none" xmlns="http://www.w3.org/2000/svg">
<path fill-rule="evenodd" clip-rule="evenodd" d="M11.9 8.50005H7.89998V5.90005C7.89998 4.90005 8.59998 4.70005 8.99998 4.70005C9.49998 4.70005 11.8 4.70005 11.8 4.70005V0.300049H7.89998C3.49998 0.300049 2.59998 3.60005 2.59998 5.60005V8.50005H0.0999756V13H2.59998C2.59998 18.8 2.59998 25.7 2.59998 25.7H7.89998C7.89998 25.7 7.89998 18.7 7.89998 13H11.5L11.9 8.50005Z"/>
</svg>

<svg width="12" height="26" fill="none" xmlns="http://www.w3.org/2000/svg"><path clip-rule="evenodd" d="M11.9 8.5h-4V5.9c0-1 .7-1.2 1.1-1.2h2.8V.3H7.9C3.5.3 2.6 3.6 2.6 5.6v2.9H.1V13h2.5v12.7h5.3V13h3.6l.4-4.5Z"/></svg>
